svg/color/light.svg

<?xml version="1.0" encoding="UTF-8" ?>
<!DOCTYPE svg PUBLIC "-//W3C//DTD SVG 1.1//EN" "http://www.w3.org/Graphics/SVG/1.1/DTD/svg11.dtd">
<svg width="250pt" height="250pt" viewBox="0 0 250 250" version="1.1" xmlns="http://www.w3.org/2000/svg">
<g id="#ffffffff">
<path fill="#ffffff" opacity="1.00" d=" M 0.00 0.00 L 250.00 0.00 L 250.00 250.00 L 0.00 250.00 L 0.00 0.00 M 118.39 4.31 C 99.39 5.39 80.73 11.00 64.23 20.47 C 46.31 31.23 30.87 46.31 20.46 64.51 C 10.98 80.58 5.54 98.96 4.43 117.58 C 3.43 122.77 3.65 128.06 4.53 133.25 C 5.51 149.94 10.36 166.26 17.86 181.15 C 23.64 191.87 31.16 201.60 39.52 210.43 C 45.11 215.14 50.10 220.59 56.32 224.53 C 73.81 236.50 94.45 243.85 115.61 245.42 C 122.12 246.57 128.73 246.38 135.24 245.33 C 150.35 244.24 165.02 239.76 178.74 233.49 C 186.10 229.95 192.63 225.01 199.26 220.31 C 213.67 209.65 224.42 194.92 233.12 179.43 C 239.92 164.93 244.58 149.30 245.48 133.25 C 246.36 128.06 246.56 122.77 245.58 117.58 C 244.65 103.72 241.64 89.90 235.93 77.20 C 226.63 54.71 209.63 35.95 189.40 22.65 C 172.52 12.21 153.11 5.69 133.25 4.51 C 128.33 3.72 123.31 3.36 118.39 4.31 Z" />
</g>
<g id="#e9a80eff">
<path fill="#e9a80e" opacity="1.00" d=" M 118.39 4.31 C 123.31 3.36 128.33 3.72 133.25 4.51 C 153.11 5.69 172.52 12.21 189.40 22.65 C 209.63 35.95 226.63 54.71 235.93 77.20 C 241.64 89.90 244.65 103.72 245.58 117.58 C 246.56 122.77 246.36 128.06 245.48 133.25 C 244.58 149.30 239.92 164.93 233.12 179.43 C 224.42 194.92 213.67 209.65 199.26 220.31 C 192.63 225.01 186.10 229.95 178.74 233.49 C 165.02 239.76 150.35 244.24 135.24 245.33 C 128.73 246.38 122.12 246.57 115.61 245.42 C 94.45 243.85 73.81 236.50 56.32 224.53 C 50.10 220.59 45.11 215.14 39.52 210.43 C 31.16 201.60 23.64 191.87 17.86 181.15 C 10.36 166.26 5.51 149.94 4.53 133.25 C 3.65 128.06 3.43 122.77 4.43 117.58 C 5.54 98.96 10.98 80.58 20.46 64.51 C 30.87 46.31 46.31 31.23 64.23 20.47 C 80.73 11.00 99.39 5.39 118.39 4.31 M 111.32 16.91 C 102.06 18.60 92.69 20.36 84.01 24.14 C 77.02 27.14 70.24 30.68 63.92 34.93 C 43.55 48.54 28.43 69.42 20.96 92.68 C 19.09 99.69 17.55 106.80 16.59 113.99 C 16.48 121.63 16.33 129.30 16.67 136.94 C 18.14 145.79 19.60 154.75 22.96 163.12 C 28.32 176.66 35.86 189.47 46.06 199.94 C 66.23 221.37 95.48 234.31 125.00 233.72 C 152.39 234.28 179.56 223.13 199.44 204.43 C 213.61 191.30 223.87 174.20 229.53 155.78 C 231.59 147.00 233.94 138.09 233.51 128.99 C 233.29 122.27 234.12 115.43 232.62 108.81 C 230.80 97.91 227.99 87.09 222.76 77.30 C 212.25 55.37 194.01 37.30 172.03 26.91 C 160.85 21.10 148.39 18.35 136.01 16.59 C 127.79 16.58 119.51 16.08 111.32 16.91 Z" />
<path fill="#e9a80e" opacity="1.00" d=" M 61.43 68.44 C 70.06 68.53 78.70 68.42 87.33 68.51 C 87.14 97.83 87.18 127.16 87.31 156.49 C 104.07 156.47 120.83 156.57 137.59 156.44 C 137.55 165.07 137.67 173.70 137.51 182.33 C 112.18 182.15 86.85 182.15 61.52 182.33 C 61.37 144.37 61.56 106.40 61.43 68.44 Z" />
<path fill="#e9a80e" opacity="1.00" d=" M 112.45 68.49 C 137.80 68.47 163.15 68.42 188.50 68.51 C 188.50 105.99 188.66 143.49 188.43 180.96 L 187.74 181.50 C 179.61 181.91 171.45 181.46 163.31 181.67 C 163.23 152.38 163.47 123.09 163.19 93.80 C 146.33 93.63 129.46 93.52 112.61 93.85 C 112.20 85.40 112.46 76.94 112.45 68.49 Z" />
<path fill="#e9a80e" opacity="1.00" d=" M 112.26 124.98 C 116.55 118.81 120.41 112.34 124.97 106.36 C 129.51 112.40 133.22 119.00 137.69 125.08 C 133.40 131.36 129.48 137.88 124.96 143.99 C 120.34 137.93 116.23 131.48 112.26 124.98 Z" />
</g>
<g id="#101913ff">
<path fill="#101913" opacity="1.00" d=" M 111.32 16.91 C 119.51 16.08 127.79 16.58 136.01 16.59 C 148.39 18.35 160.85 21.10 172.03 26.91 C 194.01 37.30 212.25 55.37 222.76 77.30 C 227.99 87.09 230.80 97.91 232.62 108.81 C 234.12 115.43 233.29 122.27 233.51 128.99 C 233.94 138.09 231.59 147.00 229.53 155.78 C 223.87 174.20 213.61 191.30 199.44 204.43 C 179.56 223.13 152.39 234.28 125.00 233.72 C 95.48 234.31 66.23 221.37 46.06 199.94 C 35.86 189.47 28.32 176.66 22.96 163.12 C 19.60 154.75 18.14 145.79 16.67 136.94 C 16.33 129.30 16.48 121.63 16.59 113.99 C 17.55 106.80 19.09 99.69 20.96 92.68 C 28.43 69.42 43.55 48.54 63.92 34.93 C 70.24 30.68 77.02 27.14 84.01 24.14 C 92.69 20.36 102.06 18.60 111.32 16.91 M 61.43 68.44 C 61.56 106.40 61.37 144.37 61.52 182.33 C 86.85 182.15 112.18 182.15 137.51 182.33 C 137.67 173.70 137.55 165.07 137.59 156.44 C 120.83 156.57 104.07 156.47 87.31 156.49 C 87.18 127.16 87.14 97.83 87.33 68.51 C 78.70 68.42 70.06 68.53 61.43 68.44 M 112.45 68.49 C 112.46 76.94 112.20 85.40 112.61 93.85 C 129.46 93.52 146.33 93.63 163.19 93.80 C 163.47 123.09 163.23 152.38 163.31 181.67 C 171.45 181.46 179.61 181.91 187.74 181.50 L 188.43 180.96 C 188.66 143.49 188.50 105.99 188.50 68.51 C 163.15 68.42 137.80 68.47 112.45 68.49 M 112.26 124.98 C 116.23 131.48 120.34 137.93 124.96 143.99 C 129.48 137.88 133.40 131.36 137.69 125.08 C 133.22 119.00 129.51 112.40 124.97 106.36 C 120.41 112.34 116.55 118.81 112.26 124.98 Z" />
</g>
</svg>

<?xml version="1.0" encoding="utf-8"?>
<!-- Generator: Adobe Illustrator 26.0.3, SVG Export Plug-In . SVG Version: 6.00 Build 0)  -->
<svg version="1.1" id="Layer_1" xmlns="http://www.w3.org/2000/svg" xmlns:xlink="http://www.w3.org/1999/xlink" x="0px" y="0px"
	 viewBox="0 0 250 250" style="enable-background:new 0 0 250 250;" xml:space="preserve">
<style type="text/css">
	.st0{fill:#E9A80E;}
	.st1{fill:#101913;}
</style>
<g id="_x23_e9a80eff">
	<path class="st0" d="M118.4,4.3c4.9-1,9.9-0.6,14.9,0.2c19.9,1.2,39.3,7.7,56.1,18.1c20.2,13.3,37.2,32.1,46.5,54.5
		c5.7,12.7,8.7,26.5,9.7,40.4c1,5.2,0.8,10.5-0.1,15.7c-0.9,16.1-5.6,31.7-12.4,46.2c-8.7,15.5-19.4,30.2-33.9,40.9
		c-6.6,4.7-13.2,9.6-20.5,13.2c-13.7,6.3-28.4,10.8-43.5,11.8c-6.5,1.1-13.1,1.2-19.6,0.1c-21.2-1.6-41.8-8.9-59.3-20.9
		c-6.2-3.9-11.2-9.4-16.8-14.1c-8.4-8.8-15.9-18.6-21.7-29.3c-7.5-14.9-12.4-31.2-13.3-47.9c-0.9-5.2-1.1-10.5-0.1-15.7
		c1.1-18.6,6.5-37,16-53.1c10.4-18.2,25.9-33.3,43.8-44C80.7,11,99.4,5.4,118.4,4.3 M111.3,16.9c-9.3,1.7-18.6,3.5-27.3,7.2
		c-7,3-13.8,6.5-20.1,10.8C43.5,48.5,28.4,69.4,21,92.7c-1.9,7-3.4,14.1-4.4,21.3c-0.1,7.6-0.3,15.3,0.1,23
		c1.5,8.8,2.9,17.8,6.3,26.2c5.4,13.5,12.9,26.4,23.1,36.8c20.2,21.4,49.4,34.4,78.9,33.8c27.4,0.6,54.6-10.6,74.4-29.3
		c14.2-13.1,24.4-30.2,30.1-48.6c2.1-8.8,4.4-17.7,4-26.8c-0.2-6.7,0.6-13.6-0.9-20.2c-1.8-10.9-4.6-21.7-9.9-31.5
		c-10.5-21.9-28.8-40-50.7-50.4c-11.2-5.8-23.6-8.6-36-10.3C127.8,16.6,119.5,16.1,111.3,16.9z"/>
	<path class="st0" d="M61.4,68.4c8.6,0.1,17.3,0,25.9,0.1c-0.2,29.3-0.2,58.7,0,88c16.8,0,33.5,0.1,50.3-0.1
		c0,8.6,0.1,17.3-0.1,25.9c-25.3-0.2-50.7-0.2-76,0C61.4,144.4,61.6,106.4,61.4,68.4z"/>
	<path class="st0" d="M112.4,68.5c25.4,0,50.7-0.1,76.1,0c0,37.5,0.2,75-0.1,112.5l-0.7,0.5c-8.1,0.4-16.3,0-24.4,0.2
		c-0.1-29.3,0.2-58.6-0.1-87.9c-16.9-0.2-33.7-0.3-50.6,0C112.2,85.4,112.5,76.9,112.4,68.5z"/>
	<path class="st0" d="M112.3,125c4.3-6.2,8.2-12.6,12.7-18.6c4.5,6,8.2,12.6,12.7,18.7c-4.3,6.3-8.2,12.8-12.7,18.9
		C120.3,137.9,116.2,131.5,112.3,125z"/>
</g>
<g id="_x23_101913ff">
	<path class="st1" d="M111.3,16.9c8.2-0.8,16.5-0.3,24.7-0.3c12.4,1.8,24.8,4.5,36,10.3c22,10.4,40.2,28.5,50.7,50.4
		c5.2,9.8,8,20.6,9.9,31.5c1.5,6.6,0.7,13.5,0.9,20.2c0.4,9.1-1.9,18-4,26.8c-5.7,18.4-15.9,35.5-30.1,48.6
		c-19.9,18.7-47.1,29.9-74.4,29.3c-29.5,0.6-58.8-12.4-78.9-33.8c-10.2-10.5-17.7-23.3-23.1-36.8c-3.4-8.4-4.8-17.3-6.3-26.2
		c-0.3-7.6-0.2-15.3-0.1-23c1-7.2,2.5-14.3,4.4-21.3c7.5-23.3,22.6-44.1,43-57.8C70.2,30.7,77,27.1,84,24.1
		C92.7,20.4,102.1,18.6,111.3,16.9 M61.4,68.4c0.1,38-0.1,75.9,0.1,113.9c25.3-0.2,50.7-0.2,76,0c0.2-8.6,0-17.3,0.1-25.9
		c-16.8,0.1-33.5,0-50.3,0.1c-0.1-29.3-0.2-58.7,0-88C78.7,68.4,70.1,68.5,61.4,68.4 M112.4,68.5c0,8.5-0.2,16.9,0.2,25.4
		c16.9-0.3,33.7-0.2,50.6,0c0.3,29.3,0,58.6,0.1,87.9c8.1-0.2,16.3,0.2,24.4-0.2l0.7-0.5c0.2-37.5,0.1-75,0.1-112.5
		C163.1,68.4,137.8,68.5,112.4,68.5 M112.3,125c4,6.5,8.1,12.9,12.7,19c4.5-6.1,8.4-12.6,12.7-18.9c-4.5-6.1-8.2-12.7-12.7-18.7
		C120.4,112.3,116.6,118.8,112.3,125z"/>
</g>
</svg>
